public/assets/images/field-d02.svg

<svg width="17" height="18" viewBox="0 0 17 18" fill="none" xmlns="http://www.w3.org/2000/svg">
<path d="M4.47506 14C4.4164 14 4.36573 13.9787 4.32306 13.936C4.2804 13.8933 4.25906 13.8427 4.25906 13.784V13.496C4.25906 13.4373 4.2804 13.3867 4.32306 13.344C4.36573 13.3013 4.4164 13.28 4.47506 13.28H5.75506V9.376L4.79506 10.104C4.74706 10.1467 4.69373 10.1627 4.63506 10.152C4.5764 10.1413 4.5284 10.1147 4.49106 10.072L4.29906 9.824C4.26173 9.776 4.24573 9.72267 4.25106 9.664C4.26173 9.60533 4.29106 9.55733 4.33906 9.52L5.71506 8.464C5.75773 8.432 5.8004 8.41333 5.84306 8.408C5.88573 8.40267 5.9284 8.4 5.97106 8.4H6.29906C6.35773 8.4 6.4084 8.42133 6.45106 8.464C6.49373 8.50667 6.51506 8.55733 6.51506 8.616V13.28H7.79506C7.85373 13.28 7.9044 13.3013 7.94706 13.344C7.98973 13.3867 8.01106 13.4373 8.01106 13.496V13.784C8.01106 13.8427 7.98973 13.8933 7.94706 13.936C7.9044 13.9787 7.85373 14 7.79506 14H4.47506ZM9.7 12.544C9.76933 12.7947 9.92133 12.9947 10.156 13.144C10.3907 13.288 10.6627 13.36 10.972 13.36C11.148 13.36 11.3133 13.336 11.468 13.288C11.6227 13.24 11.756 13.168 11.868 13.072C11.9853 12.976 12.076 12.856 12.14 12.712C12.2093 12.5627 12.244 12.392 12.244 12.2C12.244 12.008 12.2093 11.84 12.14 11.696C12.076 11.5467 11.9853 11.424 11.868 11.328C11.756 11.232 11.6227 11.16 11.468 11.112C11.3133 11.064 11.148 11.04 10.972 11.04C10.7693 11.04 10.6067 11.064 10.484 11.112C10.3667 11.1547 10.268 11.2027 10.188 11.256C10.1133 11.304 10.044 11.352 9.98 11.4C9.92133 11.4427 9.852 11.464 9.772 11.464H9.364C9.316 11.464 9.27333 11.448 9.236 11.416C9.204 11.3787 9.188 11.336 9.188 11.288L9.428 8.616C9.428 8.55733 9.44933 8.50667 9.492 8.464C9.53467 8.42133 9.58533 8.4 9.644 8.4H12.468C12.5267 8.4 12.5773 8.42133 12.62 8.464C12.6627 8.50667 12.684 8.55733 12.684 8.616V8.904C12.684 8.96267 12.6627 9.01333 12.62 9.056C12.5773 9.09867 12.5267 9.12 12.468 9.12H10.14L10.012 10.504C10.1027 10.4613 10.2253 10.4213 10.38 10.384C10.54 10.3413 10.7373 10.32 10.972 10.32C11.2493 10.32 11.5107 10.3627 11.756 10.448C12.0067 10.5333 12.2227 10.6587 12.404 10.824C12.5907 10.984 12.7373 11.1813 12.844 11.416C12.9507 11.6453 13.004 11.9067 13.004 12.2C13.004 12.4933 12.9507 12.7573 12.844 12.992C12.7373 13.2213 12.5907 13.4187 12.404 13.584C12.2227 13.744 12.0067 13.8667 11.756 13.952C11.5107 14.0373 11.2493 14.08 10.972 14.08C10.7053 14.08 10.4493 14.0427 10.204 13.968C9.964 13.8933 9.75067 13.7893 9.564 13.656C9.38267 13.5173 9.236 13.3547 9.124 13.168C9.012 12.976 8.95333 12.768 8.948 12.544C8.948 12.496 8.964 12.456 8.996 12.424C9.03333 12.3867 9.076 12.368 9.124 12.368H9.492C9.53467 12.368 9.57467 12.384 9.612 12.416C9.65467 12.4427 9.684 12.4853 9.7 12.544Z" fill="#4F66EE"/>
<path d="M12 0.5C12 0.223858 12.2239 0 12.5 0C12.7761 0 13 0.223858 13 0.5V2H12V0.5Z" fill="#4F66EE"/>
<path d="M13 3C13 3.27614 12.7761 3.5 12.5 3.5C12.2239 3.5 12 3.27614 12 3L12 1.5L13 1.5L13 3Z" fill="#4F66EE"/>
<path d="M4 0.5C4 0.223858 4.22386 0 4.5 0C4.77614 0 5 0.223858 5 0.5V2H4V0.5Z" fill="#4F66EE"/>
<path d="M5 3C5 3.27614 4.77614 3.5 4.5 3.5C4.22386 3.5 4 3.27614 4 3L4 1.5L5 1.5L5 3Z" fill="#4F66EE"/>
<path d="M1 1.5H16C16.2761 1.5 16.5 1.72386 16.5 2V17C16.5 17.2761 16.2761 17.5 16 17.5H1C0.723858 17.5 0.5 17.2761 0.5 17V2C0.5 1.72386 0.723858 1.5 1 1.5Z" stroke="#4F66EE" stroke-linecap="round" stroke-linejoin="round"/>
<line x1="1" y1="4.5" x2="17" y2="4.5" stroke="#4F66EE"/>
</svg>

<svg width="17" height="18" fill="none" xmlns="http://www.w3.org/2000/svg"><path d="M4.475 14a.208.208 0 01-.152-.064.208.208 0 01-.064-.152v-.288c0-.059.021-.11.064-.152a.208.208 0 01.152-.064h1.28V9.376l-.96.728a.182.182 0 01-.16.048.243.243 0 01-.144-.08L4.3 9.824a.22.22 0 01-.048-.16.229.229 0 01.088-.144l1.376-1.056a.27.27 0 01.128-.056c.043-.005.085-.008.128-.008H6.3c.059 0 .11.021.152.064a.208.208 0 01.064.152v4.664h1.28c.059 0 .11.021.152.064a.208.208 0 01.064.152v.288c0 .059-.021.11-.064.152a.208.208 0 01-.152.064h-3.32zM9.7 12.544c.07.25.221.45.456.6.235.144.507.216.816.216.176 0 .341-.024.496-.072.155-.048.288-.12.4-.216a.963.963 0 00.272-.36c.07-.15.104-.32.104-.512s-.035-.36-.104-.504a.95.95 0 00-.272-.368 1.113 1.113 0 00-.4-.216 1.665 1.665 0 00-.496-.072 1.366 1.366 0 00-.784.216 3.501 3.501 0 00-.208.144.344.344 0 01-.208.064h-.408a.191.191 0 01-.128-.048.191.191 0 01-.048-.128l.24-2.672c0-.059.021-.11.064-.152a.208.208 0 01.152-.064h2.824c.059 0 .11.021.152.064a.208.208 0 01.064.152v.288c0 .059-.021.11-.064.152a.208.208 0 01-.152.064H10.14l-.128 1.384c.09-.043.213-.083.368-.12.16-.043.357-.064.592-.064.277 0 .539.043.784.128.25.085.467.21.648.376.187.16.333.357.44.592.107.23.16.49.16.784 0 .293-.053.557-.16.792a1.79 1.79 0 01-1.088.96 2.37 2.37 0 01-.784.128c-.267 0-.523-.037-.768-.112a2.235 2.235 0 01-.64-.312 1.736 1.736 0 01-.44-.488 1.28 1.28 0 01-.176-.624c0-.048.016-.088.048-.12a.176.176 0 01.128-.056h.368c.043 0 .083.016.12.048.043.027.072.07.088.128zM12 .5a.5.5 0 011 0V2h-1V.5z" fill="#4F66EE"/><path d="M13 3a.5.5 0 01-1 0V1.5h1V3zM4 .5a.5.5 0 011 0V2H4V.5z" fill="#4F66EE"/><path d="M5 3a.5.5 0 01-1 0V1.5h1V3z" fill="#4F66EE"/><path d="M1 1.5h15a.5.5 0 01.5.5v15a.5.5 0 01-.5.5H1a.5.5 0 01-.5-.5V2a.5.5 0 01.5-.5z" stroke="#4F66EE" stroke-linecap="round" stroke-linejoin="round"/><path stroke="#4F66EE" d="M1 4.5h16"/></svg>
